assets/Dragon/Flat/dragon_flat.svg

<svg width="32" height="32" viewBox="0 0 32 32" fill="none" xmlns="http://www.w3.org/2000/svg">
<path d="M12.7833 6.95996H17.9233C18.2233 6.95996 18.4633 7.19996 18.4633 7.49996V8.09996C18.4633 9.37543 17.4307 10.4126 16.1569 10.4199H17.7833C18.1633 10.4199 18.4733 10.7299 18.4733 11.1099V12.8099C18.4733 14.5699 17.4062 15.9999 15.2833 15.9999H12.7833V6.95996Z" fill="#F70A8D"/>
<path d="M28.9733 17.99C28.3333 17.36 27.4633 17 26.5633 17H25.3133C25.1333 17 24.9933 16.85 24.9933 16.68V15.73C24.9933 15.33 24.6633 15 24.2633 15H21.5533C20.5733 15 19.6633 15.48 19.1033 16.28L16.4933 20H23.9833L23.9733 27H28.6833C29.4033 27 29.9933 26.42 29.9933 25.69V20.43C29.9933 19.51 29.6233 18.64 28.9733 17.99Z" fill="#F70A8D"/>
<path d="M3.99335 7.64C3.99335 7.92 4.21335 8.14 4.49335 8.14C4.77335 8.14 4.99335 7.92 4.99335 7.64V6.3C4.99335 6.28719 4.99334 6.27449 4.99333 6.26191C4.99301 5.76409 4.99281 5.45312 5.5 5.45312H7.1875C7.8275 5.45312 8.28094 4.99063 8.53094 4.40063L8.96094 3.39062C9.06094 3.16062 9.41335 3.09375 9.65335 3.09375H11.6333C12.0938 3.09375 12.2188 2.87375 12.2188 2.59375C12.2188 2.31375 12.0703 2.11719 11.6333 2.11719H9.65335C9.01335 2.11719 8.34375 2.36313 8.09375 2.95312L7.66375 3.97312C7.57375 4.20312 7.4275 4.45312 7.1875 4.45312H5.61719C4.77344 4.45312 3.99335 4.75 3.99335 6.3V7.64Z" fill="#FCD53F"/>
<path d="M14.3612 3.01196L16.8164 3.01214C16.9264 3.01214 17.0286 3.1001 16.9886 3.2001L15.9908 4.59864C15.9721 4.62495 15.942 4.64056 15.9097 4.64056H14.3934C13.7242 4.64056 13.5575 5.50028 13.5408 6.01993C13.5193 6.69035 11.9062 6.8094 11.9062 6.01993C11.9063 4.53466 12.6614 3.01196 14.3612 3.01196Z" fill="#FCD53F"/>
<path d="M15.1875 14.5781C14.9688 15.8125 13.9604 17.3792 12.9104 18.3692C11.7003 19.5108 9.88986 19.9123 9.10938 21.2031C8.10284 22.8678 9.4909 25.0642 11.5333 24.75C14.5625 23.9531 15.2812 19.25 18.4733 17.625C20.8833 16.3981 23.3212 16.0559 26.0938 18.6875C27.5084 20.0302 27.9933 21.9706 27.9933 23.8599C27.9933 26.7199 26.3438 29.9999 22.5833 29.9999H19.6433C19.2031 29.9999 18.9531 29.6938 18.9531 29.3438C19.0781 26.9199 21.8438 27.6488 22.4844 27.1094C23.125 26.5699 22.9933 25.5513 22.9933 24.5899V22.5L22.5 21.5H21L16.7865 26.5699L12.2233 29.4029L8.5 28.5C8.23 28.38 7.49335 29.0899 7.23335 28.9399L6.73335 29.7099C6.61335 29.8899 6.41335 29.9999 6.19335 29.9999H3.53335C3.10335 29.9999 2.85335 29.5299 3.09335 29.1799L4.64062 26.8671L4 22.5L4.5 19L10 15L10.8769 13H6.55271C5.71271 13 4.84375 12.0445 4.84375 11.3945C4.84375 11.2465 4.99935 10.9492 5.18748 10.9492H9.44482C9.60569 10.9492 9.68698 10.7553 9.57422 10.6406L9.30469 10.3671C9.08469 10.1471 8.76562 10.0546 8.50781 10.0546H4.91781C4.26572 10.0546 3.90625 9.5799 3.90625 9.0599V6.9899C3.90625 6.5599 4.1875 6.22651 4.70312 6.14839C5.39371 6.04375 5.89763 6.28223 6.39062 6.70308C6.58063 6.87308 6.85335 6.9899 7.11335 6.9899H8.19335C8.85156 6.9899 8.60523 6.3902 9.21094 5.93745C9.81665 5.4847 10.4609 5.54683 12.2656 5.54683L16.8359 5.54687C17.0937 5.54687 17.2812 5.54687 17.2812 5.78688L17.167 6.34083C17.007 6.96083 16.2833 7.4299 15.8633 7.4299C15.4433 7.4299 15.0312 7.35156 14.9609 7.63281C14.9609 7.63281 15.3359 7.96094 15.3359 8.5999C15.3309 10.5516 15.4062 13.3438 15.1875 14.5781Z" fill="#00D26A"/>
<path d="M4.67188 7.67578C4.67188 7.44926 4.85551 7.26562 5.08203 7.26562C5.30855 7.26562 5.49219 7.44926 5.49219 7.67578V8.54297C5.49219 8.76949 5.30855 8.95312 5.08203 8.95312C4.85551 8.95312 4.67188 8.76949 4.67188 8.54297V7.67578Z" fill="#008463"/>
<path d="M10 8.00781C10 7.73167 10.2239 7.50781 10.5 7.50781C10.7761 7.50781 11 7.73167 11 8.00781V9.06496C11 9.3411 10.7761 9.56496 10.5 9.56496C10.2239 9.56496 10 9.3411 10 9.06496V8.00781Z" fill="#1C1C1C"/>
<path d="M4.64063 26.8594L4.63531 26.8603C3.73231 25.7043 3.20684 24.0246 3.1875 22.6328C3.1775 21.9128 3.22407 21.0671 3.41407 20.3671C4.01563 17.9375 5.74838 16.3775 7.88282 15.3281C8.82032 14.8671 9.87693 14.05 9.87693 13H11.154C11.5255 13 11.6328 13.0468 11.6328 13.4712C11.6328 13.8956 11.0095 15.2953 10.2177 15.8787C9.96316 16.0663 9.59567 16.2688 9.17246 16.502C7.71795 17.3036 5.60534 18.4678 5.15752 20.6343C4.64616 23.1081 5.29085 24.938 5.60335 25.5161L4.64063 26.8594Z" fill="#FCD53F"/>
<path d="M21.8433 20.54C22.4833 20.57 22.9733 21.1 23.0033 21.74V23.18C22.9933 23.02 22.9633 22.87 22.9033 22.73C22.7733 22.45 22.5233 22.22 22.2433 22.11C22.1133 22.07 21.9733 22.04 21.8333 22.04H21.7933C21.7133 22.04 21.6433 22.05 21.5633 22.07C21.4833 22.09 21.4133 22.12 21.3433 22.15C21.2033 22.21 21.0733 22.31 20.9733 22.42C20.9703 22.4231 20.9664 22.4261 20.9621 22.4294C20.9521 22.437 20.9403 22.4461 20.9333 22.46C20.9233 22.48 20.9033 22.5 20.8933 22.51L20.2333 23.38L18.4833 25.7L17.8233 26.57L17.7133 26.72L17.5533 26.92C17.1133 27.46 16.6133 27.94 16.0533 28.36C14.9333 29.19 13.6133 29.73 12.2333 29.92C11.8833 29.97 11.5433 29.99 11.1933 30H11.1033C10.7733 30 10.4433 29.98 10.0933 29.93C9.98376 29.9171 9.87002 29.8959 9.75481 29.8745C9.69129 29.8626 9.62731 29.8507 9.56334 29.84C9.48341 29.8201 9.3935 29.8001 9.30357 29.7801C9.21357 29.7601 9.13334 29.74 9.04334 29.71C8.69334 29.62 8.35334 29.49 8.02334 29.35C7.75334 29.23 7.48334 29.09 7.22334 28.94L8.04334 27.68C8.23334 27.79 8.42334 27.89 8.62334 27.98C8.91334 28.11 9.17334 28.2 9.43334 28.27H9.45334C9.52332 28.29 9.57331 28.3 9.6233 28.31L9.64334 28.31L9.69334 28.32C9.74361 28.3368 9.79387 28.3465 9.83825 28.3551C9.84685 28.3568 9.85523 28.3584 9.86334 28.36L9.91334 28.37C10.0433 28.4 10.1733 28.42 10.2733 28.43H10.3133C10.5533 28.46 10.8133 28.48 11.0933 28.48H11.1633C11.4733 28.48 11.7533 28.46 12.0133 28.42C13.1433 28.26 14.2233 27.82 15.1333 27.14C15.5833 26.8 15.9933 26.4 16.3533 25.96L16.5033 25.78L16.6033 25.65L17.2633 24.78L19.0133 22.46L19.6733 21.59L19.7133 21.54L19.7333 21.52C19.7533 21.49 19.7833 21.46 19.8033 21.44L19.8433 21.39C20.0933 21.12 20.3833 20.91 20.7033 20.77C20.8533 20.7 21.0133 20.65 21.1733 20.61H21.1933C21.3533 20.57 21.5233 20.55 21.7033 20.54H21.8433Z" fill="#FCD53F"/>
</svg>

<svg xmlns="http://www.w3.org/2000/svg" width="32" height="32" fill="none"><path fill="#F70A8D" d="M12.783 6.96h5.14c.3 0 .54.24.54.54v.6a2.322 2.322 0 0 1-2.306 2.32h1.626c.38 0 .69.31.69.69v1.7c0 1.76-1.067 3.19-3.19 3.19h-2.5V6.96ZM28.973 17.99c-.64-.63-1.51-.99-2.41-.99h-1.25c-.18 0-.32-.15-.32-.32v-.95c0-.4-.33-.73-.73-.73h-2.71c-.98 0-1.89.48-2.45 1.28L16.493 20h7.49l-.01 7h4.71c.72 0 1.31-.58 1.31-1.31v-5.26c0-.92-.37-1.79-1.02-2.44Z"/><path fill="#FCD53F" d="M3.993 7.64c0 .28.22.5.5.5s.5-.22.5-.5V6.262c0-.498 0-.809.507-.809h1.688c.64 0 1.093-.462 1.343-1.052l.43-1.01c.1-.23.452-.297.692-.297h1.98c.46 0 .586-.22.586-.5s-.149-.477-.586-.477h-1.98c-.64 0-1.31.246-1.56.836l-.43 1.02c-.09.23-.236.48-.476.48h-1.57c-.844 0-1.624.297-1.624 1.847v1.34ZM14.361 3.012h2.455c.11 0 .213.088.173.188L15.99 4.6a.1.1 0 0 1-.081.042h-1.517c-.669 0-.836.86-.852 1.379-.022.67-1.635.79-1.635 0 0-1.485.755-3.008 2.455-3.008Z"/><path fill="#00D26A" d="M15.188 14.578c-.22 1.235-1.228 2.801-2.278 3.791-1.21 1.142-3.02 1.543-3.8 2.834-1.007 1.665.38 3.861 2.423 3.547 3.03-.797 3.748-5.5 6.94-7.125 2.41-1.227 4.848-1.57 7.62 1.063 1.415 1.342 1.9 3.283 1.9 5.172 0 2.86-1.65 6.14-5.41 6.14h-2.94c-.44 0-.69-.306-.69-.656.125-2.424 2.89-1.695 3.531-2.235.641-.54.51-1.558.51-2.52V22.5l-.494-1H21l-4.213 5.07-4.564 2.833L8.5 28.5c-.27-.12-1.007.59-1.267.44l-.5.77c-.12.18-.32.29-.54.29h-2.66c-.43 0-.68-.47-.44-.82l1.548-2.313L4 22.5l.5-3.5 5.5-4 .877-2H6.553c-.84 0-1.71-.956-1.71-1.605 0-.149.156-.446.344-.446h4.258c.16 0 .242-.194.13-.308l-.27-.274c-.22-.22-.54-.312-.797-.312h-3.59c-.652 0-1.012-.475-1.012-.995V6.99c0-.43.281-.763.797-.842.69-.104 1.195.134 1.688.555.19.17.462.287.722.287h1.08c.659 0 .412-.6 1.018-1.053.606-.452 1.25-.39 3.055-.39h4.57c.258 0 .445 0 .445.24l-.114.554c-.16.62-.884 1.089-1.304 1.089-.42 0-.832-.078-.902.203 0 0 .375.328.375.967-.005 1.952.07 4.744-.149 5.978Z"/><path fill="#008463" d="M4.672 7.676a.41.41 0 1 1 .82 0v.867a.41.41 0 0 1-.82 0v-.867Z"/><path fill="#1C1C1C" d="M10 8.008a.5.5 0 0 1 1 0v1.057a.5.5 0 0 1-1 0V8.008Z"/><path fill="#FCD53F" d="M4.64 26.86h-.005c-.903-1.156-1.428-2.835-1.447-4.227-.01-.72.036-1.566.226-2.266.602-2.43 2.334-3.99 4.469-5.039.937-.46 1.994-1.278 1.994-2.328h1.277c.371 0 .479.047.479.471 0 .425-.623 1.824-1.415 2.408-.255.187-.622.39-1.046.623-1.454.802-3.567 1.966-4.014 4.132-.512 2.474.133 4.304.445 4.882l-.962 1.343ZM21.843 20.54c.64.03 1.13.56 1.16 1.2v1.44c-.01-.16-.04-.31-.1-.45-.13-.28-.38-.51-.66-.62a1.41 1.41 0 0 0-.41-.07h-.04c-.08 0-.15.01-.23.03-.08.02-.15.05-.22.08a1.105 1.105 0 0 0-.38.28.092.092 0 0 0-.03.03c-.01.02-.03.04-.04.05l-.66.87-1.75 2.32-.66.87-.11.15-.16.2c-.44.54-.94 1.02-1.5 1.44a8.345 8.345 0 0 1-4.86 1.64h-.09c-.33 0-.66-.02-1.01-.07-.11-.013-.223-.034-.338-.055a10.008 10.008 0 0 0-.192-.035c-.08-.02-.17-.04-.26-.06a2.51 2.51 0 0 1-.26-.07 7.258 7.258 0 0 1-1.82-.77l.82-1.26c.19.11.38.21.58.3.29.13.55.22.81.29h.02c.07.02.12.03.17.04h.02l.05.01c.05.017.1.026.145.035l.025.005.05.01c.13.03.26.05.36.06h.04c.24.03.5.05.78.05h.07c.31 0 .59-.02.85-.06a6.82 6.82 0 0 0 3.12-1.28c.45-.34.86-.74 1.22-1.18l.15-.18.1-.13.66-.87 1.75-2.32.66-.87.04-.05.02-.02c.02-.03.05-.06.07-.08l.04-.05c.25-.27.54-.48.86-.62.15-.07.31-.12.47-.16h.02c.16-.04.33-.06.51-.07h.14Z"/></svg>
